src/lib/packages/icons/src/assets/filled/message-edit.svg

<svg width="24" height="24" viewBox="0 0 24 24" fill="none" xmlns="http://www.w3.org/2000/svg">
<path d="M18 3H6C4 3 3 4 3 6V21L6 18H18C20 18 21 17 21 15V6C21 4 20 3 18 3ZM10.22 14.5H8V12.28L11.98 8.28003L14.22 10.52L10.22 14.5ZM15.74 9.01001L14.9199 9.81995L12.6799 7.57996L13.49 6.76001C13.84 6.41001 14.4 6.41001 14.75 6.76001L15.74 7.75C16.09 8.1 16.09 8.66001 15.74 9.01001Z" fill="currentColor"/>
</svg>

<svg xmlns="http://www.w3.org/2000/svg" width="24" height="24" fill="none"><path fill="currentColor" d="M18 3H6C4 3 3 4 3 6v15l3-3h12c2 0 3-1 3-3V6c0-2-1-3-3-3Zm-7.78 11.5H8v-2.22l3.98-4 2.24 2.24-4 3.98Zm5.52-5.49-.82.81-2.24-2.24.81-.82c.35-.35.91-.35 1.26 0l.99.99c.35.35.35.91 0 1.26Z"/></svg>
